svg/16/close-square--filled.svg

<svg width="16" height="16" viewBox="0 0 16 16" fill="currentColor" xmlns="http://www.w3.org/2000/svg"><path fill-rule="evenodd" clip-rule="evenodd" d="M2 3C2 2.44772 2.44772 2 3 2H13C13.5523 2 14 2.44772 14 3V13C14 13.5523 13.5523 14 13 14H3C2.44772 14 2 13.5523 2 13V3ZM5.14645 5.14645C5.34171 4.95118 5.65829 4.95118 5.85355 5.14645L8 7.29289L10.1464 5.14645C10.3417 4.95118 10.6583 4.95118 10.8536 5.14645C11.0488 5.34171 11.0488 5.65829 10.8536 5.85355L8.70711 8L10.8536 10.1464C11.0488 10.3417 11.0488 10.6583 10.8536 10.8536C10.6583 11.0488 10.3417 11.0488 10.1464 10.8536L8 8.70711L5.85355 10.8536C5.65829 11.0488 5.34171 11.0488 5.14645 10.8536C4.95118 10.6583 4.95118 10.3417 5.14645 10.1464L7.29289 8L5.14645 5.85355C4.95118 5.65829 4.95118 5.34171 5.14645 5.14645Z"/></svg>

<svg xmlns="http://www.w3.org/2000/svg" width="16" height="16" fill="currentColor" viewBox="0 0 16 16">
  <path fill-rule="evenodd" d="M2 3a1 1 0 0 1 1-1h10a1 1 0 0 1 1 1v10a1 1 0 0 1-1 1H3a1 1 0 0 1-1-1V3Zm3.146 2.146a.5.5 0 0 1 .708 0L8 7.293l2.146-2.147a.5.5 0 0 1 .708.708L8.707 8l2.147 2.146a.5.5 0 0 1-.708.708L8 8.707l-2.146 2.147a.5.5 0 0 1-.708-.708L7.293 8 5.146 5.854a.5.5 0 0 1 0-.708Z" clip-rule="evenodd"/>
</svg>
